X: 2108
T: The Humours Of Tulla
B: nick
B: to learn
M:4/4
Q: 1/4=100
K:Dmajor
V:1 
"D"d2 Ad BdAB|d2 fd "G"edBc|"D"d2 Ad BdAd|
 [1 "G"(3Bcd ef "A"gefe:|2 "G"(3Bcd ef "A"g2 fg||
 "D"a~f3 d~f3|a~f3 "A"g~e3|"D"a~f3 dfed|
 [1 "G"(3Bcd ef "A"g2 fg:|2 "G"(3Bcd ef "A"g2 fe||"D" d4||
% abcbook-tune_id 63456178103983fe37e6519b


% abcbook-boost 0
% abcbook-tablature 
% abcbook-transpose 
% abcbook-lastupdated 1666006573944
% abcbook-soundfonts 
% abcbook-repeats 3


